X:553
T:BAdd553-  Woman's work is never done
S:Leyen MS, c 1692, via Wooldridge
Q:1/4=120
L:1/4
M:C
K:Em
B,DD3/2E/|D/E/D/B,/D3/2 D/|B,EE(G/A/)|B(A/G/)D3/2D/|\
B,DD3/2E/|D/E/D/B,/D3/2 G/|G/E/D/E/G(A/B/)|c/B/A/G/E2||\
G(A/B/)d3/2e/|d/B/A/B/d2|A(B/c/)e3/2f/|e/d/g/f/e3/2d/|\
d(e/f/)g3/2e/|e/c/B/A/G3/2G/|A/B/d/e/ d/B/A/B/|A3/2G/E2|]

